web/workspace/public/assets/icons/gift.svg

<svg xmlns="http://www.w3.org/2000/svg" width="30" height="30" viewBox="0 0 30 30"><path d="M29 9h-6.343C23.911 8.024 25 6.696 25 5a4 4 0 0 0-4-4c-3.859 0-5.828 5.516-6 6-.172-.484-2.141-6-6-6a4 4 0 0 0-4 4c0 1.696 1.089 3.024 2.343 4H1v8h2v12h24V17h2V9zm-10 6h-8v-4h8v4zm0 2v10h-8V17h8zm2-14c1.103 0 2 .897 2 2 0 1.362-1.637 2.85-4.393 4h-2.195c.635-2.109 2.354-6 4.588-6zM7 5c0-1.103.897-2 2-2 2.234 0 3.953 3.891 4.588 6h-2.195C8.637 7.85 7 6.362 7 5zm-4 6h6v4H3v-4zm2 6h4v10H5V17zm20 10h-4V17h4v10zm2-12h-6v-4h6v4z"/></svg>

<?xml version="1.0" encoding="iso-8859-1"?>
<!-- Generator: Adobe Illustrator 14.0.0, SVG Export Plug-In . SVG Version: 6.00 Build 43363)  -->
<!DOCTYPE svg PUBLIC "-//W3C//DTD SVG 1.1//EN" "http://www.w3.org/Graphics/SVG/1.1/DTD/svg11.dtd">
<svg version="1.1" id="Layer_1" xmlns="http://www.w3.org/2000/svg" xmlns:xlink="http://www.w3.org/1999/xlink" x="0px" y="0px"
	 width="30px" height="30px" viewBox="0 0 30 30" style="enable-background:new 0 0 30 30;" xml:space="preserve">
<path d="M29,9h-6.343C23.911,8.024,25,6.696,25,5c0-2.209-1.791-4-4-4c-3.859,0-5.828,5.516-6,6c-0.172-0.484-2.141-6-6-6
	C6.791,1,5,2.791,5,5c0,1.696,1.089,3.024,2.343,4H1v8h2v12h24V17h2V9z M19,15h-8v-4h8V15z M19,17v10h-8V17H19z M21,3
	c1.103,0,2,0.897,2,2c0,1.362-1.637,2.85-4.393,4h-2.195C17.047,6.891,18.766,3,21,3z M7,5c0-1.103,0.897-2,2-2
	c2.234,0,3.953,3.891,4.588,6h-2.195C8.637,7.85,7,6.362,7,5z M3,11h6v4H3V11z M5,17h4v10H5V17z M25,27h-4V17h4V27z M27,15h-6v-4h6
	V15z"/>
</svg>
